X:22
T:Langstrom's Pony
T:Langstern Pony, The
R:jig
D:Mary Bergin: Feadoga Stain.
D:De Dannan: Mist Covered Mountain.
Z:id:hn-jig-22
M:6/8
K:Amix
fed cAA|EAA cAA|fed cAA|BGB dcB|fed cAA|EAA cAA|faf gfe|dBG Bcd:|
|:cee dff|cee ecA|cee g2e|dBG Bcd|cee dff|cee efg|faf gfe|dBG Bcd:|
|:Ace ~a3|ecA ecA|GBd ~g3|dBG Bcd|~f3 ~g3|fed cBA|faf gfe|dBG Bcd:|
|:AEA ~A2d|cAc ecB|AEA ~A2=c|BGB dcB|AEA ~A2d|cAc efg|faf gfe|dBG Bcd:|
<end>
<start>
